src/modules/75-ce/common/images/green-leaf.svg

<svg fill="none" height="597" viewBox="0 0 597 597" width="597" xmlns="http://www.w3.org/2000/svg" xmlns:xlink="http://www.w3.org/1999/xlink"><clipPath id="a"><path d="m0 0h597v597h-597z" transform="matrix(-1 0 0 1 597 0)"/></clipPath><g clip-path="url(#a)"><path d="m509.998 442.5-100.5 54-60.998 45.5c-23.333 3.167-84.2 7.6-141 0-71-9.5-103.5-63.5-142.5-117.5-31.2-43.2-33.6667-130-31-168 8.1667-37.333 30.2-110.3 53-103.5s113.833 11.833 156.5 13.5c15.833-23.167 52-76.9 70-106.5s93.5-44 129-47.5c-3.2 2 34 94.5 53 140.5 16.833 21.5 52.798 81.9 61.998 151.5s-27.833 121-47.5 138z" fill="#42ab45" stroke="#000"/><path d="m446.681 9.31024c-10.376-9.087939-59.444 10.81896-82.681 21.90846 11.889 30.5626 43.448 102.7233 74.575 146.8643 31.127 44.142 43.772 99.535 46.204 121.714 4.053 48.415 18.806 138.429 45.393 111.165 33.235-34.08 51.068-122.525 22.697-157.416s-82.681-141.999-90.787-164.7191c-8.106-22.7198-2.432-68.1567-15.401-79.51666z" fill="#fcfeff" opacity=".2"/><path d="m222.17 181.144c-109.864-.643-135.7234-21.697-134.9203-32.144-17.9356 13.393-49.1486 43.234-30.5168 55.449 23.2898 15.269 94.7651 9.643 171.0591 15.269 76.294 5.625 125.283 45.002 167.847 87.593 34.052 34.073 35.604 100.987 32.124 130.185-12.046 36.43-26.984 89.522 9.637 10.446 36.621-79.075.268-162.061-22.486-193.669-18.472-24.109-82.881-72.486-192.744-73.129z" fill="#fcfeff" opacity=".2"/><path d="m460.684 6.96503c1.99 4.97497 7.96 25.86997 10.945 46.76497 3.98 21.8901 26.865 73.63 50.745 114.425 49.75 86.565 62.685 141.29 44.775 196.015-11.94 38.805-45.77 83.58-61.69 83.58-14.925 0-7.96-23.88 13.93-47.76 18.905-18.905 22.885-34.825 22.885-84.575 0-54.725-4.975-69.65-43.78-136.315-23.88-40.795-45.77-91.54-47.76-112.435-6.965-46.765-13.93-50.745-58.705-36.815-42.785 13.93-98.505 61.69-119.4 100.495-17.91 35.82-18.905 35.82 12.935 42.785 15.92 3.98 35.82 8.955 44.775 11.94 12.935 3.98 19.9-4.975 27.86-34.825 5.97-22.885 14.925-40.795 19.9-40.795 11.94 0 11.94 6.965 0 48.755-8.955 32.835-7.96 35.82 31.84 69.65 71.64 61.69 85.57 135.32 42.785 227.855-18.905 41.79-22.885 61.69-17.91 96.515 4.975 35.82 2.985 44.775-9.95 44.775-9.95 0-16.915-14.925-21.89-47.76-2.985-25.87-15.92-66.665-26.865-89.55-18.905-40.795-21.89-42.785-53.73-37.81-17.91 3.98-34.825 1.99-38.805-3.98-2.985-4.975 0-9.95 6.965-9.95s19.9-4.975 27.86-9.95c12.935-7.96 9.95-13.93-14.925-34.825-16.915-13.93-46.765-33.83-67.66-44.775-19.9-10.945-36.815-24.875-36.815-29.85 0-14.925 8.955-11.94 56.715 15.92l43.78 24.875-6.965-24.875c-2.985-14.925-1.99-25.87 3.98-25.87 11.94 0 21.89 23.88 21.89 49.75 0 10.945 12.935 33.83 28.855 51.74 14.925 17.91 35.82 47.76 45.77 66.665 16.915 32.835 17.91 33.83 31.84 15.92 42.785-59.7 39.8-144.275-7.96-198.005-37.81-43.78-91.54-64.675-207.955-80.595-51.74-6.965-102.485-15.92-112.4347-19.9-36.815-15.92-60.695 116.415-36.815 203.975 16.915 61.69 65.6697 126.365 110.4447 150.245 35.82 17.91 54.725 20.895 115.42 16.915 74.625-4.975 93.53 3.98 44.775 22.885-44.775 17.91-137.31 3.98-189.05-27.86-91.5397-56.715-141.28967139-206.96-107.4597-324.37 19.9-68.655 39.8-82.585 89.5497-61.69 18.905 7.96 52.735 14.925 74.625 14.925 32.835 0 39.8-3.98 44.775-24.875 8.955-34.825 61.69-92.535 106.465-115.42 37.81-18.90493896 103.48-25.86997 111.44-11.93997z" fill="#000"/></g></svg>

<svg width="597" height="597" viewBox="0 0 597 597" fill="none" xmlns="http://www.w3.org/2000/svg">
<g clip-path="url(#clip0_4047_40223)">
<path d="M509.998 442.5L409.498 496.5L348.5 542C325.167 545.167 264.3 549.6 207.5 542C136.5 532.5 104 478.5 65 424.5C33.8 381.3 31.3333 294.5 34 256.5C42.1667 219.167 64.2 146.2 87 153C109.8 159.8 200.833 164.833 243.5 166.5C259.333 143.333 295.5 89.6 313.5 60C331.5 30.4 407 16 442.5 12.5C439.3 14.5 476.5 107 495.5 153C512.333 174.5 548.298 234.9 557.498 304.5C566.698 374.1 529.665 425.5 509.998 442.5Z" fill="#42AB45" stroke="black"/>
<path opacity="0.2" d="M446.681 9.31024C436.305 0.222301 387.237 20.1292 364 31.2187C375.889 61.7813 407.448 133.942 438.575 178.083C469.702 222.225 482.347 277.618 484.779 299.797C488.832 348.212 503.585 438.226 530.172 410.962C563.407 376.882 581.24 288.437 552.869 253.546C524.498 218.655 470.188 111.547 462.082 88.8269C453.976 66.1071 459.65 20.6702 446.681 9.31024Z" fill="#FCFEFF"/>
<path opacity="0.2" d="M222.17 181.144C112.306 180.501 86.4466 159.447 87.2497 149C69.3141 162.393 38.1011 192.234 56.7329 204.449C80.0227 219.718 151.498 214.092 227.792 219.718C304.086 225.343 353.075 264.72 395.639 307.311C429.691 341.384 431.243 408.298 427.763 437.496C415.717 473.926 400.779 527.018 437.4 447.942C474.021 368.867 437.668 285.881 414.914 254.273C396.442 230.164 332.033 181.787 222.17 181.144Z" fill="#FCFEFF"/>
<path d="M460.684 6.96503C462.674 11.94 468.644 32.835 471.629 53.73C475.609 75.6201 498.494 127.36 522.374 168.155C572.124 254.72 585.059 309.445 567.149 364.17C555.209 402.975 521.379 447.75 505.459 447.75C490.534 447.75 497.499 423.87 519.389 399.99C538.294 381.085 542.274 365.165 542.274 315.415C542.274 260.69 537.299 245.765 498.494 179.1C474.614 138.305 452.724 87.56 450.734 66.665C443.769 19.9 436.804 15.92 392.029 29.85C349.244 43.78 293.524 91.54 272.629 130.345C254.719 166.165 253.724 166.165 285.564 173.13C301.484 177.11 321.384 182.085 330.339 185.07C343.274 189.05 350.239 180.095 358.199 150.245C364.169 127.36 373.124 109.45 378.099 109.45C390.039 109.45 390.039 116.415 378.099 158.205C369.144 191.04 370.139 194.025 409.939 227.855C481.579 289.545 495.509 363.175 452.724 455.71C433.819 497.5 429.839 517.4 434.814 552.225C439.789 588.045 437.799 597 424.864 597C414.914 597 407.949 582.075 402.974 549.24C399.989 523.37 387.054 482.575 376.109 459.69C357.204 418.895 354.219 416.905 322.379 421.88C304.469 425.86 287.554 423.87 283.574 417.9C280.589 412.925 283.574 407.95 290.539 407.95C297.504 407.95 310.439 402.975 318.399 398C331.334 390.04 328.349 384.07 303.474 363.175C286.559 349.245 256.709 329.345 235.814 318.4C215.914 307.455 198.999 293.525 198.999 288.55C198.999 273.625 207.954 276.61 255.714 304.47L299.494 329.345L292.529 304.47C289.544 289.545 290.539 278.6 296.509 278.6C308.449 278.6 318.399 302.48 318.399 328.35C318.399 339.295 331.334 362.18 347.254 380.09C362.179 398 383.074 427.85 393.024 446.755C409.939 479.59 410.934 480.585 424.864 462.675C467.649 402.975 464.664 318.4 416.904 264.67C379.094 220.89 325.364 199.995 208.949 184.075C157.209 177.11 106.464 168.155 96.5143 164.175C59.6993 148.255 35.8193 280.59 59.6993 368.15C76.6143 429.84 125.369 494.515 170.144 518.395C205.964 536.305 224.869 539.29 285.564 535.31C360.189 530.335 379.094 539.29 330.339 558.195C285.564 576.105 193.029 562.175 141.289 530.335C49.7493 473.62 -0.000671387 323.375 33.8293 205.965C53.7293 137.31 73.6293 123.38 123.379 144.275C142.284 152.235 176.114 159.2 198.004 159.2C230.839 159.2 237.804 155.22 242.779 134.325C251.734 99.5 304.469 41.79 349.244 18.905C387.054 6.10352e-05 452.724 -6.96497 460.684 6.96503Z" fill="black"/>
</g>
<defs>
<clipPath id="clip0_4047_40223">
<rect width="597" height="597" fill="white" transform="matrix(-1 0 0 1 597 0)"/>
</clipPath>
</defs>
</svg>
